X:1
T:MONS-STEP
T:MONS-STEP
T:Léopold CLUYTENS 1918 
T:Kindest remembrance of the british army
T:3140,
T:3140,
T:3140,
T:3140,
T:3140,
C:Léopold CLUYTENS
Z:3140,
%%score { ( 1 2 ) | ( 3 4 5 ) }
L:1/8
Q:1/4=170
M:2/2
K:G
V:1 treble nm="Piano" snm="Pno."
V:2 treble 
V:3 bass 
V:4 bass 
V:5 bass 
V:1
"^Two Step"!f! .D z !>![ce]!>![cf] !>![cd]2 !>![ce]!>![cf] | !>![cd]2 !>![ege']2 !>![dfd']2!p! z2 | %2
 z2!p! .[CE].[CF] .[CD]2 .[CE].[CF] | .[CD]2 z2 !>!.[dfad']2 z2 ||!p! (d4 B4 | A>B .A) z E4 | %6
 (D2 .d) z (A>B .A) z |!<(! G2 .g z!<)! !tenuto!d4 |!p! [GBe]>f .[GBe] z (!tenuto![DFB]2 A>B | %9
 [EAc]>d .[EAc]) z !tenuto![B,EG]4 | G>AB>c d2 B>G | A>B .A z!<(! A/d/e/f/ g/a/b/c'/!<)! | %12
!f! ([dgbd']4 [dgb]4) | ([^cga]>b .[cga]) z [Gce]4 | (d2 .d') z (a>b .a) z | %15
 (g2 .g') z !tenuto!d'4 |!p! ([gbe']>f' .[gbe']) z (!tenuto![dfb]2 a>b) | %17
 ([eac']>d' .[eac']) z !tenuto![Beg]4 |!f! (g>ab>c' d'2 b>g) | %19
 (!>![cea]>b !>!.[cda]) z !>!.[Bdg] z z2 ||!mf! (G,4 A,.E)!tenuto!D!tenuto!B, | %21
 (CDEB !trill(!TA2 .G) z | (A4!<(! B.e)!tenuto!d!tenuto!B | (cde!<)!b !trill(!Ta2 .g) z | %24
!f! .c' z (!tenuto!g2- gedc | =f>g .f) z !tenuto!B4 | (e2 dc c2{dc} BA | %27
 d2)!>(! (!tenuto!BA _AG(3=FDB,)!>)! |!mf! (G,4 A,.E).D.B, | (CDEB !trill(!TA2 .G) z | %30
 (A4!<(! B.e).d.B | (cde!<)!b !trill(!Ta2 .g) z |!f! .c' z (!tenuto!g2 ^gaeg | %33
 =f>)(ed>)(c B>)d(3cA=F |!ff! (!>!G,2 !>!.G) z !>!D>=F!>!E>D | %35
 !>!.C z !>!.[GBdg] z !>!.[cegc'] z z2 ||!p! (d4 B4 | A>B .A) z !tenuto!E4 | (D2 .d) z (A>B .A) z | %39
 G2 .g z !tenuto!d4 | [GBe]>f .[GBe] z (!tenuto![DFB]2 A>B | [EAc]>d .[EAc]) z !tenuto![B,EG]4 | %42
 (G>AB>c d2 B>G | A>B .A) z!<(! (A/d/e/f/ g/a/b/c'/)!<)! |!ff! [dgbd']4 [dgb]4 | %45
 ([^cga]>b .[cga]) z [Gce]4 | (d2 .d') z (a>b .a) z | (g2 .g') z !tenuto!d'4 | %48
!p! ([gbe']>f' .[gbe']) z (!tenuto![dfb]2 a>b) | ([eac']>d' .[eac']) z !tenuto![Beg]4 | %50
 (g>ab>c' d'2 b>.g) |!ff! z2 !>!.[dfad'] z !>![gbd'g'] z z2 ||[K:D]!mf! (A3 B d).c.B.A | %53
 (B2 f2{ef} ecBA) |!<(! (defb .a2) .b2!<)! |!<(! c'6!<)! bc' | .e'z/(d'/ a2- a^abd' | %57
 .c'>)(b.a>)(f!<(! .g>)(a.b>)c' |{bc'} b2 a!<)!g{fg} f2 ed | f2{ef} e!>(!f ecBA!>)! | %60
!mf! (A3 B d).c.B.A | (B2 f2{ef} ecBA) | (de!<(!fb .a2) .b2!<)! | c'6!f! (bc' | %64
!f! .e')z/(d'/ !>!b2- bgfe) |!p! (3(d'_bg e2- edc=B) |!<(! (A2 .b) z (!trill(!Tc4{Bc} | %67
 d4-!<)!!ff! !>!.[dfad']) z z2 ||!mf! (F2 .f)!<(! z (c>ed>c!<)! | %69
!ff! B2) !>![Fc]!>![Fd] !>![FB]2 z2 |!mf! (B2 .b) z!<(! (f>ag>f | %71
 e2)!<)!!ff! !>![Bf]!>![Bg] !>![Be]2 z2 |!ff! !tenuto!e4 !tenuto!e'3 (e'/4d'/4c'/4b/4 | %73
 ^a2 b>)(c' .d'>)(c'.b>)(=a | g4) c'3 (c'/4b/4a/4g/4 | f2 g>)(a .b>)(a.g>)(f | %76
 .e>)(f.g>)(b .a>)(g.f>)(e |!<(! .d>)(e.f>)(a .g>)(f.e>)(d!<)! | %78
 c2) !>![C^E^G]2 !>![CE^A]2 !>![CEB]2 | !>![CF^Ac]2 !>!E>F !>!D>E!>!C>D | %80
!mf! (F2 .f)!<(! z (c>ed>c!<)! |!ff! B2) !>![Fc]!>![Fd] !>![FB]2 z2 | %82
!mf! (B2 .b) z!<(! (f>ag>f!<)! | e2)!ff! !>![Bf]!>![Bg] !>![Be]2 z2 | %84
!f! !>!e4 !>!e'3 (e'/4d'/4c'/4b/4 | ^a2 b>)(c' .d'>)(c'.b>)(a | %86
!ff! !>!.g>)!>!.f!>!.e>!>!.d !>!.c>.B!>!.A>.G | (!trill(!TF4{^E)F} .B z z2 ||!mf! (A3 B d).c.B.A | %89
 (B2 f2{ef} ecBA) |!<(! (defb .a2) .b2!<)! | c'6 bc' | .e'z/(d'/ a2- a^abd' | %93
 .c'>)(b.a>)(f!<(! .g>)(a.b>)(c'!<)! |{bc'} b2 ag{fg} f2 ed | f2{ef} e!>(!f ecBA)!>)! | %96
!mf! (A3 B d).c.B.A | (B2 f2{ef} ecBA) | (de!<(!fb .a2) .b2!<)! | c'6!f! (bc' | %100
 .e')z/(d'/ !>!b2- bgfe) |!p! (3(d'_bg e2- edc=B) |!<(! (A2 .b) z !trill(!Tc4{Bc}!<)! | %103
!ff! (d4- .[dfad']) z z2 ||[K:G]!f! .D z !>![ce]!>![cf] !>![cd]2 !>![ce]!>![cf] | %105
 !>![cd]2 !>![ege']2 !>![dfd']2!p! z2 | z2!p! .[CE].[CF] .[CD]2 .[CE].[CF] | %107
 .[CD]2 z2 !>!.[dfad']2 z2 |!p! (d4 B4 | A>B .A) z E4 | (D2 .d) z (A>B .A) z | %111
!<(! G2 .g z!<)! !tenuto!d4 |!p! [GBe]>f .[GBe] z (!tenuto![DFB]2 A>B | %113
 [EAc]>d .[EAc]) z !tenuto![B,EG]4 | (G>AB>c d2 B>G | A>B .A) z!<(! A/d/e/f/ g/a/b/c'/!<)! | %116
!f! ([dgbd']4 [dgb]4) | ([^cga]>b .[cga]) z [Gce]4 | (d2 .d') z (a>b .a) z | %119
 (g2 .g') z !tenuto!d'4 |!p! ([gbe']>f' .[gbe']) z (!tenuto![dfb]2 a>b) | %121
 ([eac']>d' .[eac']) z !tenuto![Beg]4 |!f! (g>ab>c' d'2 b>g) | %123
 (!>![cea]>b !>!.[cda]) z !>!.[Bdg] z z2 ||!mf! (G,4 A,.E)!tenuto!D!tenuto!B, | %125
 (CDEB !trill(!TA2 .G) z | (A4!<(! B.e)!tenuto!d!tenuto!B | (cde!<)!b !trill(!Ta2 .g) z | %128
!f! .c' z (!tenuto!g2- gedc | =f>g .f) z !tenuto!B4 | (e2 dc c2{dc} BA | %131
 d2)!>(! (!tenuto!BA _AG(3=FDB,)!>)! |!mf! (G,4 A,.E).D.B, | (CDEB !trill(!TA2 .G) z | %134
 (A4!<(! B.e).d.B | (cde!<)!b !trill(!Ta2 .g) z |!f! .c' z (!tenuto!g2 ^gaeg | %137
 =f>)(ed>)(c B>)d(3cA=F |!ff! (!>!G,2 !>!.G) z !>!D>=F!>!E>D | %139
 !>!.C z !>!.[GBdg] z !>!.[cegc'] z z2 ||!p! (d4 B4 | A>B .A) z !tenuto!E4 | (D2 .d) z (A>B .A) z | %143
 G2 .g z !tenuto!d4 | [GBe]>f .[GBe] z (!tenuto![DFB]2 A>B | [EAc]>d .[EAc]) z !tenuto![B,EG]4 | %146
 (G>AB>c d2 B>G | A>B .A) z!<(! (A/d/e/f/ g/a/b/c'/)!<)! |!ff! [dgbd']4 [dgb]4 | %149
 ([^cga]>b .[cga]) z [Gce]4 | (d2 .d') z (a>b .a) z | (g2 .g') z !tenuto!d'4 | %152
!p! ([gbe']>f' .[gbe']) z (!tenuto![dfb]2 a>b) | ([eac']>d' .[eac']) z !tenuto![Beg]4 | %154
 (g>ab>c' d'2 b>.g) |!ff! z2 !>!.[dfad'] z !>![gbd'g'] z z2 |] %156
V:2
 x2 !>![DG]!>![DA] !>![DF]2 !>![DG]!>![DA] | !>![DF]2 !>![GAc]2 !>![FAc]2 x2 | x8 | %3
 x4 !>!.[DAc]2 x2 || x8 | x8 | x8 | x8 | x8 | x8 | x8 | x8 | x8 | x8 | x8 | x8 | x8 | x8 | x8 | %19
 x8 || x8 | x8 | x8 | x8 | x8 | x8 | x8 | x8 | x8 | x8 | x8 | x8 | x8 | x8 | x8 | x8 || x8 | x8 | %38
 x8 | x8 | x8 | x8 | x8 | x8 | x8 | x8 | x8 | x8 | x8 | x8 | x8 | x8 ||[K:D] x8 | x8 | x8 | x8 | %56
 x8 | x8 | x8 | x8 | x8 | x8 | x8 | x8 | x8 | x8 | x8 | x8 || x8 | x8 | x8 | x8 | x8 | x8 | x8 | %75
 x8 | x8 | x8 | x8 | x8 | x8 | x8 | x8 | x8 | x8 | x8 | x8 | x8 || x8 | x8 | x8 | x8 | x8 | x8 | %94
 x8 | x8 | x8 | x8 | x8 | x8 | x8 | x8 | x8 | x8 || %104
[K:G] x2 !>![DG]!>![DA] !>![DF]2 !>![DG]!>![DA] | !>![DF]2 !>![GAc]2 !>![FAc]2 x2 | x8 | %107
 x4 !>!.[DAc]2 x2 | x8 | x8 | x8 | x8 | x8 | x8 | x8 | x8 | x8 | x8 | x8 | x8 | x8 | x8 | x8 | %123
 x8 || x8 | x8 | x8 | x8 | x8 | x8 | x8 | x8 | x8 | x8 | x8 | x8 | x8 | x8 | x8 | x8 || x8 | x8 | %142
 x8 | x8 | x8 | x8 | x8 | x8 | x8 | x8 | x8 | x8 | x8 | x8 | x8 | x8 |] %156
V:3
 .[D,,D,] z x6 | x6 .[A,,A,] z | [D,,D,] z .[D,G,].[D,A,] .[D,F,]2 .[D,G,].[D,A,] | %3
 .[D,F,]2 z2 x2 z (D,/4C,/4B,,/4A,,/4) || G,,2 [D,G,B,]4 [D,G,B,]2 | G,,2 [E,G,^C]4 [E,G,C]2 | %6
 G,,2 [E,G,!courtesy!=C]4 [E,G,C]2 | G,,2 [D,G,B,]4 [D,G,B,]2 | (E,2 G,) z !tenuto!B,4 | %9
 (A,,2 .C,) z !tenuto!E,4 | x2 [G,C]2 x2 [G,B,]2 | %11
 (x2 [G,A,]2 .[D,F,A,]2) z (D,/4^C,/4B,,/4A,,/4) |!ped! G,,2 [D,G,B,]4 [D,G,B,]2!ped-up! | %13
!ped! G,,2 [E,G,^C]4 [E,G,C]2!ped-up! |!ped! G,,2 [E,G,!courtesy!=C]4 [E,G,C]2!ped-up! | %15
!ped! G,,2 [D,G,B,]4 [D,G,B,]2!ped-up! | %16
[K:treble] (E2"^subito" .G) z"_J. B. KATTO, Editeur, Bruxelles." !tenuto!B4 | %17
 (A,2 .C) z !tenuto!E4 |[K:bass] x2 [G,C]2 x2 [G,B,]2 | %19
 !>![C,E,A,]2 !>!.[D,F,A,] z !>!.[G,,B,,D,G,] z z2 || D,2 [=F,G,]2 G,,2 [F,G,]2 | %21
 (C,2 .[E,G,]) z .[G,C] z .[CE] z | D,2 [=F,A,C]2 G,,2 [F,G,B,]2 | %23
 (C,2 .[E,G,]) z .[G,C] z .[CE] z | E,2 [G,C]2 C,2 [E,G,C]2 | D,2 [=F,A,C]2 G,,2 [F,G,B,]2 | %26
 C,2 [E,G,]2 A,,2 [D,!courtesy!^F,]2 | .[G,,B,,D,G,] z z2 z4 | D,2 [=F,G,]2 G,,2 [F,G,]2 | %29
 (C,2 .[E,G,]) z .[G,C] z .[CE] z | D,2 [=F,A,C]2 G,,2 [F,G,B,]2 | %31
 (C,2 .[E,G,]) z .[G,C] z .[CE] z | E,2 [G,C]2 A,,2 [^C,G,A,]2 | %33
 (D,2 .[=F,A,]) z .[A,D] z .[D=F] z | G,,2"^marcato" [E,G,C]2 G,,2 [=F,G,B,]2 | %35
 !>!.[C,E,G,] z !>!.[G,,G,] z !>!.[C,,C,] z z2 || G,,2 [D,G,B,]4 [D,G,B,]2 | %37
 G,,2 [E,G,^C]4 [E,G,C]2 | G,,2 [E,G,!courtesy!=C]4 [E,G,C]2 | G,,2 [D,G,B,]4 [D,G,B,]2 | %40
 (E,2 .G,) z !tenuto!B,4 | (A,,2 .C,) z !tenuto!E,4 | x2 [G,C]2 x2 [G,B,]2 | %43
 (x2 [G,A,]2 .[D,F,A,]2) z (D,/4^C,/4B,,/4A,,/4) |!ped! G,,2 [D,G,B,]4 [D,G,B,]2!ped-up! | %45
!ped! G,,2 [E,G,^C]4 [E,G,C]2!ped-up! |!ped! G,,2 [E,G,!courtesy!=C]4 [E,G,C]2!ped-up! | %47
!ped! G,,2 [D,G,B,]4 [D,G,B,]2!ped-up! |[K:treble] (E2"^subito" .G) z !tenuto!B4 | %49
 (A,2 .C) z !tenuto!E4 |[K:bass] x2 [G,C]2 x2 [G,B,]2 | z2 !>!.[D,F,A,] z !>!.[G,,B,,D,G,] z z2 || %52
[K:D] D,2 [F,A,]2"^gracioso" A,,2 [F,A,]2 | E,2 [G,A,]2 A,,2 [G,A,]2 | D,2 [F,A,]2 A,,2 [F,A,]2 | %55
!ped! A,,2 C2 F2 E2!ped-up! | x2 [A,D]2 (x2 [^G,D]2 |"^leggerio" E,2) [G,A,C]2 A,,2 [G,A,]2 | %58
 D,2 [F,A,]2 B,,2 [E,^G,]2 | x2- [E,^G,]2 [A,,E,=G,]2 z2 | D,2 [F,A,]2 A,,2 [F,A,]2 | %61
 E,2 [G,A,]2 A,,2 [G,A,]2 | D,2 [F,A,]2 A,,2 [F,A,]2 |!ped! [D,,D,]8!ped-up! | %64
!ped! G,,2 !arpeggio!.[G,B,D] z !arpeggio!.[B,DG]!ped-up! z z2 | %65
!ped! E,,2"^subito" !arpeggio!.[E,G,_B,D] z !arpeggio!.[G,^B,DE]!ped-up! z z2 | %66
 A,,2 [F,A,]2 A,,2 [G,A,]2 |!ped! D,2 [F,A,]2!ped-up! !>!.[D,,D,] z z2 || %68
 B,,2 [D,F,B,]2 B,,2 [E,F,^A,]2 | %69
 [B,,D,F,B,]2[K:treble] !>![B,E]!>![B,F]"^marcato" !>![B,D]2[K:bass] [C,,C,][D,,D,] | %70
 [B,,,B,,]2 [D,F,B,]2 B,,2 [A,B,^D]2 | %71
 [E,G,B,E]2[K:treble]"^marcato" !>![EA]!>![EB] !>![EG]2[K:bass] [F,,F,][G,,G,] | %72
 [E,,E,]2 [G,B,]2 C,2 [G,B,]2 | F,2 [^A,C]2 B,,2 [F,B,D]2 | E,2 [G,B,]2 A,,2 [G,A,]2 | %75
 D,2 [F,A,]2 G,,2 [F,G,B,]2 | C,2 [E,G,B,]2 F,,2 [E,F,A,]2 | B,,2 [D,F,A,]2 E,,2 [D,E,G,]2 | %78
 [C,^E,^G,]2 !>!B,2 !>!^A,2 !>!G,2 | !>!F,2 !>![E,,E,]2 !>![D,,D,]2 !>![C,,C,]2 | %80
 B,,2 [D,F,B,]2 B,,2 [E,F,^A,]2 | %81
 [B,,D,F,B,]2[K:treble] !>![B,E]!>![B,F]"^marcato" !>![B,D]2[K:bass] [C,,C,][D,,D,] | %82
 [B,,,B,,]2 [D,F,B,]2 B,,2 [A,B,^D]2 | %83
 [E,G,B,E]2[K:treble]"^marcato" !>![EA]!>![EB] !>![EG]2[K:bass] [F,,F,][G,,G,] | %84
 [E,,E,]2 [G,B,]2 C,2 [G,B,]2 | F,2 [^A,C]2 B,,2 [F,B,D]2 | %86
 !>!.G,>"^marcato"!>!.F,!>!.E,>.D, !>!.C,>.B,,!>!.A,,>.G,, | %87
 !>!.[F,,F,]>!>!.[E,,E,]!>!.[D,,D,]>.[C,,C,] [B,,,B,,] z z2 || %88
 D,2 [F,A,]2"^gracioso" A,,2 [F,A,]2 | E,2 [G,A,]2 A,,2 [G,A,]2 | D,2 [F,A,]2 A,,2 [F,A,]2 | %91
!ped! A,,2 C2 F2 E2!ped-up! | x2 [A,D]2 (x2 [^G,D]2 |"^leggerio" E,2) [G,A,C]2 A,,2 [G,A,]2 | %94
 D,2 [F,A,]2 B,,2 [E,^G,]2 | x2- [E,^G,]2 [A,,E,=G,]2 z2 | D,2 [F,A,]2 A,,2 [F,A,]2 | %97
 E,2 [G,A,]2 A,,2 [G,A,]2 | D,2 [F,A,]2 A,,2 [F,A,]2 |!ped! [D,,D,]8!ped-up! | %100
!ped! G,,2 !arpeggio!.[G,B,D] z !arpeggio!.[B,DG]!ped-up! z z2 | %101
!ped! E,,2"^subito" !arpeggio!.[E,G,_B,D] z !arpeggio!.[G,^B,DE]!ped-up! z z2 | %102
 A,,2 [F,A,]2 A,,2 [G,A,]2 |!ped! D,2 [F,A,]2!ped-up! .[D,F,A,D] z .[A,,A,] z || %104
[K:G] .[D,,D,] z x6 | x6 .[A,,A,] z | [D,,D,] z .[D,G,].[D,A,] .[D,F,]2 .[D,G,].[D,A,] | %107
 .[D,F,]2 z2 x2 z (D,/4C,/4B,,/4A,,/4) | G,,2 [D,G,B,]4 [D,G,B,]2 | G,,2 [E,G,^C]4 [E,G,C]2 | %110
 G,,2 [E,G,!courtesy!=C]4 [E,G,C]2 | G,,2 [D,G,B,]4 [D,G,B,]2 | (E,2 G,) z !tenuto!B,4 | %113
 (A,,2 .C,) z !tenuto!E,4 | x2 [G,C]2 x2 [G,B,]2 | %115
 (x2 [G,A,]2 .[D,F,A,]2) z (D,/4^C,/4B,,/4A,,/4) |!ped! G,,2 [D,G,B,]4 [D,G,B,]2!ped-up! | %117
!ped! G,,2 [E,G,^C]4 [E,G,C]2!ped-up! |!ped! G,,2 [E,G,!courtesy!=C]4 [E,G,C]2!ped-up! | %119
!ped! G,,2 [D,G,B,]4 [D,G,B,]2!ped-up! |[K:treble] (E2"^subito" .G) z !tenuto!B4 | %121
 (A,2 .C) z !tenuto!E4 |[K:bass] x2 [G,C]2 x2 [G,B,]2 | %123
 !>![C,E,A,]2 !>!.[D,F,A,] z !>!.[G,,B,,D,G,] z z2 || D,2 [=F,G,]2 G,,2 [F,G,]2 | %125
 (C,2 .[E,G,]) z .[G,C] z .[CE] z | D,2 [=F,A,C]2 G,,2 [F,G,B,]2 | %127
 (C,2 .[E,G,]) z .[G,C] z .[CE] z | E,2 [G,C]2 C,2 [E,G,C]2 | D,2 [=F,A,C]2 G,,2 [F,G,B,]2 | %130
 C,2 [E,G,]2 A,,2 [D,!courtesy!^F,]2 | .[G,,B,,D,G,] z z2 z4 | D,2 [=F,G,]2 G,,2 [F,G,]2 | %133
 (C,2 .[E,G,]) z .[G,C] z .[CE] z | D,2 [=F,A,C]2 G,,2 [F,G,B,]2 | %135
 (C,2 .[E,G,]) z .[G,C] z .[CE] z | E,2 [G,C]2 A,,2 [^C,G,A,]2 | %137
 (D,2 .[=F,A,]) z .[A,D] z .[D=F] z | G,,2"^marcato" [E,G,C]2 G,,2 [=F,G,B,]2 | %139
 !>!.[C,E,G,] z !>!.[G,,G,] z !>!.[C,,C,] z z2 || G,,2 [D,G,B,]4 [D,G,B,]2 | %141
 G,,2 [E,G,^C]4 [E,G,C]2 | G,,2 [E,G,!courtesy!=C]4 [E,G,C]2 | G,,2 [D,G,B,]4 [D,G,B,]2 | %144
 (E,2 .G,) z !tenuto!B,4 | (A,,2 .C,) z !tenuto!E,4 | x2 [G,C]2 x2 [G,B,]2 | %147
 (x2 [G,A,]2 .[D,F,A,]2) z (D,/4^C,/4B,,/4A,,/4) |!ped! G,,2 [D,G,B,]4 [D,G,B,]2!ped-up! | %149
!ped! G,,2 [E,G,^C]4 [E,G,C]2!ped-up! |!ped! G,,2 [E,G,!courtesy!=C]4 [E,G,C]2!ped-up! | %151
!ped! G,,2 [D,G,B,]4 [D,G,B,]2!ped-up! |[K:treble] (E2"^subito" .G) z !tenuto!B4 | %153
 (A,2 .C) z !tenuto!E4 |[K:bass] x2 [G,C]2 x2 [G,B,]2 | z2 !>!.[D,F,A,] z !>!.[G,,B,,D,G,] z z2 |] %156
V:4
 x8 | x8 | x8 | x8 || x8 | x8 | x8 | x8 | x8 | x8 | (_E,4 (D,4) | ^C,4) x4 | x8 | x8 | x8 | x8 | %16
[K:treble] x8 | x8 |[K:bass] (_E,4 D,4) | x8 || x8 | x8 | x8 | x8 | x8 | x8 | x8 | x8 | x8 | x8 | %30
 x8 | x8 | x8 | x8 | x8 | x8 || x8 | x8 | x8 | x8 | x8 | x8 | (_E,4 (D,4) | ^C,4) x4 | x8 | x8 | %46
 x8 | x8 |[K:treble] x8 | x8 |[K:bass] (_E,4 D,4) | x8 ||[K:D] x8 | x8 | x8 | x2 [G,A,]6 | %56
 (F,4 =F,4) | x8 | x8 | A,,4 x4 | x8 | x8 | x8 | x2 =C6 | x8 | x8 | x8 | x8 || x8 | %69
 x2[K:treble] x4[K:bass] x2 | x8 | x2[K:treble] x4[K:bass] x2 | x8 | x8 | x8 | x8 | x8 | x8 | x8 | %79
 x8 | x8 | x2[K:treble] x4[K:bass] x2 | x8 | x2[K:treble] x4[K:bass] x2 | x8 | x8 | x8 | x8 || x8 | %89
 x8 | x8 | x2 [G,A,]6 | (F,4 =F,4) | x8 | x8 | A,,4 x4 | x8 | x8 | x8 | x2 =C6 | x8 | x8 | x8 | %103
 x8 ||[K:G] x8 | x8 | x8 | x8 | x8 | x8 | x8 | x8 | x8 | x8 | (_E,4 (D,4) | ^C,4) x4 | x8 | x8 | %118
 x8 | x8 |[K:treble] x8 | x8 |[K:bass] (_E,4 D,4) | x8 || x8 | x8 | x8 | x8 | x8 | x8 | x8 | x8 | %132
 x8 | x8 | x8 | x8 | x8 | x8 | x8 | x8 || x8 | x8 | x8 | x8 | x8 | x8 | (_E,4 (D,4) | ^C,4) x4 | %148
 x8 | x8 | x8 | x8 |[K:treble] x8 | x8 |[K:bass] (_E,4 D,4) | x8 |] %156
V:5
 x8 | x8 | x8 | x8 || x8 | x8 | x8 | x8 | x8 | x8 | x8 | x8 | x8 | x8 | x8 | x8 |[K:treble] x8 | %17
 x8 |[K:bass] x8 | x8 || x8 | x8 | x8 | x8 | x8 | x8 | x8 | x8 | x8 | x8 | x8 | x8 | x8 | x8 | x8 | %35
 x8 || x8 | x8 | x8 | x8 | x8 | x8 | x8 | x8 | x8 | x8 | x8 | x8 |[K:treble] x8 | x8 |[K:bass] x8 | %51
 x8 ||[K:D] x8 | x8 | x8 | x8 | x8 | x8 | x8 | x8 | x8 | x8 | x8 | z2 ([A,F]2 [G,E]2 [F,D]2) | x8 | %65
 x8 | x8 | x8 || x8 | x2[K:treble] x4[K:bass] x2 | x8 | x2[K:treble] x4[K:bass] x2 | x8 | x8 | x8 | %75
 x8 | x8 | x8 | x8 | x8 | x8 | x2[K:treble] x4[K:bass] x2 | x8 | x2[K:treble] x4[K:bass] x2 | x8 | %85
 x8 | x8 | x8 || x8 | x8 | x8 | x8 | x8 | x8 | x8 | x8 | x8 | x8 | x8 | z2 ([A,F]2 [G,E]2 [F,D]2) | %100
 x8 | x8 | x8 | x8 ||[K:G] x8 | x8 | x8 | x8 | x8 | x8 | x8 | x8 | x8 | x8 | x8 | x8 | x8 | x8 | %118
 x8 | x8 |[K:treble] x8 | x8 |[K:bass] x8 | x8 || x8 | x8 | x8 | x8 | x8 | x8 | x8 | x8 | x8 | x8 | %134
 x8 | x8 | x8 | x8 | x8 | x8 || x8 | x8 | x8 | x8 | x8 | x8 | x8 | x8 | x8 | x8 | x8 | x8 | %152
[K:treble] x8 | x8 |[K:bass] x8 | x8 |] %156

